X:150
T:Music For A Found Harmonium (in D and F)
Z:Jack Campin, http://www.campin.me.uk/
F:Jack Campin's Nine-Note Tunebook
% last edit 03-02-2013
T:ABABCDAECDABABB
C:Simon Jeffes
S:Penguin Cafe Orchestra: "Broadcasting from Home" (EG Records 1984)
P:ABABCDAECDABABB
M:C|
L:1/8
Q:1/2=100
N:originally in C and E flat.
N:There should be a continuous stuttering D playing
N:throughout (a key on the harmonium was broken)
N:one note is off-range, octave shift indicated
K:D
P:A
D|FDGD FDDD|FDGD  FDCD|FDGD     FDDD|EDCD FDD:|
P:B
D|EDCD EDCD|FDCD  FDCD|GDED     CDGD|FDDD D2D:|
P:C
K:C
F|cFEF GF2F|cFEF  E3F |cFEF     GF2F|cFEF E3 :|
P:D
K:F
F|BFDF GF2F|BFDF  GF2F|BFEF     GE2F|BFEF GE2G|
K:D
  cGEG CG2G|cGEG  CG2G|cGEG     CG2G|cGEG CG2||
P:E
D|EDCD EDCD|FD=CD FDCD|GD[B,B]D GDCD|FDDD D2D:|


% == Manx tunes =============================================================

